material/.icons/material/language-markdown-outline.svg

<svg xmlns="http://www.w3.org/2000/svg" viewBox="0 0 24 24"><path d="M20.56 18H3.44C2.65 18 2 17.37 2 16.59V7.41C2 6.63 2.65 6 3.44 6h17.12c.79 0 1.44.63 1.44 1.41v9.18c0 .78-.65 1.41-1.44 1.41M3.44 6.94c-.26 0-.48.21-.48.47v9.19c0 .25.22.46.48.46h17.12c.26 0 .48-.21.48-.46V7.41c0-.26-.22-.47-.48-.47H3.44m1.45 8.25V8.81h1.92l1.92 2.35 1.92-2.35h1.93v6.38h-1.93v-3.66l-1.92 2.35-1.92-2.35v3.66H4.89m12.01 0l-2.9-3.1h1.94V8.81h1.92v3.28h1.93l-2.89 3.1"/></svg>

<?xml version="1.0" encoding="UTF-8"?><!DOCTYPE svg PUBLIC "-//W3C//DTD SVG 1.1//EN" "http://www.w3.org/Graphics/SVG/1.1/DTD/svg11.dtd"><svg xmlns="http://www.w3.org/2000/svg" xmlns:xlink="http://www.w3.org/1999/xlink" version="1.1" id="mdi-language-markdown-outline" width="24" height="24" viewBox="0 0 24 24"><path d="M20.56 18H3.44C2.65 18 2 17.37 2 16.59V7.41C2 6.63 2.65 6 3.44 6H20.56C21.35 6 22 6.63 22 7.41V16.59C22 17.37 21.35 18 20.56 18M3.44 6.94C3.18 6.94 2.96 7.15 2.96 7.41V16.6C2.96 16.85 3.18 17.06 3.44 17.06H20.56C20.82 17.06 21.04 16.85 21.04 16.6V7.41C21.04 7.15 20.82 6.94 20.56 6.94H3.44M4.89 15.19V8.81H6.81L8.73 11.16L10.65 8.81H12.58V15.19H10.65V11.53L8.73 13.88L6.81 11.53V15.19H4.89M16.9 15.19L14 12.09H15.94V8.81H17.86V12.09H19.79L16.9 15.19" /></svg>
